X: 24660
T: MacGregor Of Rora
R: waltz
M: 3/4
K: Amixolydian
e|:A3/2B/ e2 e2|f3/2d/ fe A2|A3/2B/ e2 e2|f3/2e/ ed G2|
d3/2c/ d2 ed|B3/2A/ G2 g2|e3/2d/ B/d3/2 G2|A2 B2 A2:|
|:ge a2 a2|ge e2 dd|ge a2 a2|ge g2 G2|
dc d2 eg|B3/2A/ G2 g2|e3/2d/ B/d3/2 G2|A2 B2 A2:|

